X:713
T:Andy McGann's #1
R:reel
S:Kevin Finucane
Z:id:hn-reel-713
M:C|
K:C
eccB cGEG|FEDC B,DGF|EG~G2 Ec~c2|1 Bg~g2 ag^fg:|2 Bg^fg eccB||
|:c2gc ecgc|~c2ag ^fgdB|1 c2gc ecgc|BG~G2 BGdB:|2 cg~g2 ag~g2|ag^fa g3=f||
